X: 14420
T: Galway Rambler, The
R: reel
M: 4/4
K: Gmajor
gfed eBBB|gfga bgaf|gfed edBd|gedB A2Bd|
gfed eBBB|gfga bgaf|gfed edBd|gedB AGEF|

